!!!!SEGMENT: pl-wtm--r-995--005_krogulski-jozef-wladyslaw--msza-pasterska-offertorium.krn
!!!cenid: 18xx:2087
!!!COM: Krogulski, Józef Władysław
!!!COM-rismid: pe30001797
!!!CDT: 1815/10/04-1842/01/09
!!!CNT: Polish
!!!OTL: Msza pasterska – Offertorium
!!!PDT:
!!!AGN: Sacred; Mass
!!!SMS-siglum: PL-Wtm
!!!SMS-shelfmark: R 995
!!!SMS-shelfwork: 001-005 M
!!!SMS-variant:
!!!SMS-altvar:
!!!NIFC-rismid: 1001083272
!!!URL-scan: http://repozytorium.nifc.pl/skany/pl-wtm-nut--r995
!!!ONB-nifc: UWAGA: części Mszy: 1. Kyrie, 2. Gloria, 3. Graduale, 4. Credo, 5. Offertorium, 6. Sanctus, 7. Benedictus, 8. Agnus Dei, 9. Dona nobis
!!!OMD: Andante
**kern	**kern	**kern	**text	**dynam	**kern	**text	**dynam	**kern	**text	**dynam	**kern	**text	**dynam
*part5	*part5	*part4	*part4	*part4	*part3	*part3	*part3	*part2	*part2	*part2	*part1	*part1	*part1
*staff6	*staff5	*staff4	*staff4	*	*staff3	*staff3	*	*staff2	*staff2	*	*staff1	*staff1	*
*I"Orga.	*I"Orga.	*I"Baſso	*	*	*I"Tenor	*	*	*I"[Sopra] 2	*	*	*I"Sopra 1.	*	*
*I'org	*I'org	*I'B	*	*	*I'T	*	*	*I'S II	*	*	*I'S I	*	*
*clefF4	*clefG2	*clefF4	*	*	*clefG2	*	*	*clefG2	*	*	*clefG2	*	*
*	*	*	*	*	*ITrd7c12	*	*	*	*	*	*	*	*
*k[b-e-a-]	*k[b-e-a-]	*k[b-e-a-]	*	*	*k[b-e-a-]	*	*	*k[b-e-a-]	*	*	*k[b-e-a-]	*	*
*M3/4	*M3/4	*M3/4	*	*	*M3/4	*	*	*M3/4	*	*	*M3/4	*	*
=1	=1	=1	=1	=1	=1	=1	=1	=1	=1	=1	=1	=1	=1
*all\right	*all\right	*all\right	*	*	*all\right	*	*	*all\right	*	*	*all\right	*	*
*2\right	*	*2\right	*	*	*	*	*	*	*	*	*	*	*
2E-\	2.r	2E-\	Be-	.	2.r	.	.	2.r	.	.	2.r	.	.
4G\	.	4G\	-ne-	.	.	.	.	.	.	.	.	.	.
=2	=2	=2	=2	=2	=2	=2	=2	=2	=2	=2	=2	=2	=2
4.c\	2.r	4.c\	-di-	.	2.r	.	.	2.r	.	.	2.r	.	.
!	!	!LO:SIC:v:l:s=-ci-	!	!	!	!	!	!	!	!	!	!	!
8B-\	.	8B-\	-ca-	.	.	.	.	.	.	.	.	.	.
4An\	.	4An\	-te	.	.	.	.	.	.	.	.	.	.
=3	=3	=3	=3	=3	=3	=3	=3	=3	=3	=3	=3	=3	=3
2B-\	2.r	2B-\	Do-	.	2.r	.	.	2.r	.	.	2.r	.	.
4G\	.	4G\	-mi-	.	.	.	.	.	.	.	.	.	.
=4	=4	=4	=4	=4	=4	=4	=4	=4	=4	=4	=4	=4	=4
4E-\	4r	4E-\	-num	.	4r	.	.	4r	.	.	4r	.	.
*	*	*	*	*	*	*	*	*	*ij	*	*	*	*
4r	4b- 4g\	4r	.	.	4B-\	.	.	4g/	o-	.	4b-\	o-	.
4r	4ee- 4g\	4r	.	.	4B-\	.	.	4g/	-mne	.	4ee-\	-mne	.
=5	=5	=5	=5	=5	=5	=5	=5	=5	=5	=5	=5	=5	=5
*	*^	*	*	*	*	*	*	*	*	*	*	*	*
*	*2\right	*	*	*	*	*	*	*	*	*	*	*2\right	*	*
[2.BB-/	2ee-/	2.a- 2.f\	4r	.	.	2.A-/	.	.	2.f/	An	.	2ee-\	An-	.
*	*	*	*	*	*	*	*	*	*	*Xij	*	*	*	*
.	.	.	4BB-/	om-	.	.	.	.	.	.	.	.	.	.
.	4dd/	.	4BB-/	-ne	.	.	.	.	.	.	.	4dd\	.	.
*	*v	*v	*	*	*	*	*	*	*	*	*	*	*	*
=6	=6	=6	=6	=6	=6	=6	=6	=6	=6	=6	=6	=6	=6
*	*	*	*	*	*	*	*	*2\right	*	*	*	*	*
2.BB-/]	4ee- 4g\	2.BB-/	An	.	4G/	.	.	[2.b-\	.	.	4ee-\	.	.
.	4ff 4dd 4b-\	.	.	.	4F/	.	.	.	.	.	4ff\	.	.
.	4gg 4ee- 4b-\	.	.	.	4E-/	.	.	.	.	.	4gg\	.	.
!!LO:LB:g=original
=7	=7	=7	=7	=7	=7	=7	=7	=7	=7	=7	=7	=7	=7
!	!	!	!	!	!	!	!	!	!LO:TX:a:t=P:problem:brak zakończenia ligatury	!	!	!	!
2.F 2.FF/	4ff 4dd 4b-\	2F\	.	.	4F/	.	.	2b-\]	.	.	4ff\	.	.
.	4dd 4b-\	.	.	.	4f\	.	.	.	.	.	4dd\	.	.
.	8ccL 8an\	4F\	.	.	4e-\	-ge-	.	4an\	.	.	8cc\L	-ge-	.
.	8dd\J	.	.	.	.	.	.	.	.	.	8dd\J	.	.
=8	=8	=8	=8	=8	=8	=8	=8	=8	=8	=8	=8	=8	=8
4B- 4BB-\	4b-\	4B-\	.	.	4d\	-li	.	4b-\	.	.	4b-\	-li	.
4r	4r	4r	.	.	4r	.	.	4r	.	.	4r	.	.
4r	4r	4r	.	.	4r	.	.	4r	.	.	4r	.	.
=9	=9	=9	=9	=9	=9	=9	=9	=9	=9	=9	=9	=9	=9
*	*	*	*	*	*2\right	*	*	*	*	*	*	*	*
2B-\	2.r	2.r	.	.	2B-\	Be-	.	2.r	.	.	2.r	.	.
4d\	.	.	.	.	4d\	-ne-	.	.	.	.	.	.	.
=10	=10	=10	=10	=10	=10	=10	=10	=10	=10	=10	=10	=10	=10
4.g\	2.r	2.r	.	.	4.g\	-di-	.	2.r	.	.	2.r	.	.
8f\	.	.	.	.	8f\	-ci-	.	.	.	.	.	.	.
4en\	.	.	.	.	4en\	-te	.	.	.	.	.	.	.
=11	=11	=11	=11	=11	=11	=11	=11	=11	=11	=11	=11	=11	=11
2f\	2.r	2.r	.	.	2f\	Do-	.	2.r	.	.	2.r	.	.
4d\	.	.	.	.	4d\	-mi-	.	.	.	.	.	.	.
=12	=12	=12	=12	=12	=12	=12	=12	=12	=12	=12	=12	=12	=12
4B-\	4r	4r	.	.	4B-\	-num	.	4r	.	.	4r	.	.
4BB-/	4ff 4a-\	4BB-/	om-	.	4r	.	.	4a-/	.	.	4ff\	om-	.
4B-\	4b- 4a-\	4B-\	-ne	.	4r	.	.	4a-/	.	.	4b-\	-ne	.
=13	=13	=13	=13	=13	=13	=13	=13	=13	=13	=13	=13	=13	=13
[2.B- [2.BB-\	[2.ee- [2.b- [2.g\	[2.B-\	An-	.	4r	.	.	[2.g/	.	.	4ee-\	An-	.
.	.	.	.	.	4B-\	om-	.	.	.	.	4gg\	.	.
.	.	.	.	.	4e-\	-ne	.	.	.	.	4b-\	.	.
=14	=14	=14	=14	=14	=14	=14	=14	=14	=14	=14	=14	=14	=14
2.B-_ 2.BB-\_	4ee-] 4b-] 4g\]	2.B-\]	.	.	4g\	An-	.	2.g/]	.	.	4ee-\	.	.
.	4g 4e-/	.	.	.	4B-\	.	.	.	.	.	4g\	.	.
.	4cc 4e-/	.	.	.	4e-\	.	.	.	.	.	4cc\	.	.
=15	=15	=15	=15	=15	=15	=15	=15	=15	=15	=15	=15	=15	=15
2.B-] 2.BB-\]	4b- 4d/	2BB-/	.	.	2d\	.	.	2f/	.	.	4b-\	.	.
.	4f 4d/	.	.	.	.	.	.	.	.	.	4f/	.	.
.	4a- 4f/	4BB-/	-ge-	.	4d\	-ge-	.	4f/	.	.	4a-/	-ge-	.
=16	=16	=16	=16	=16	=16	=16	=16	=16	=16	=16	=16	=16	=16
(8E-\L	4g 4e-/	4E-\	-li	.	4e-\	-li	.	4e-/	.	.	4g/	-li	.
8G\	.	.	.	.	.	.	.	.	.	.	.	.	.
8B-\	4r	4r	.	.	4r	.	.	4r	.	.	4r	.	.
8e-\	.	.	.	.	.	.	.	.	.	.	.	.	.
8B-\	4r	4r	.	.	4r	.	.	4r	.	.	4r	.	.
8G\J)	.	.	.	.	.	.	.	.	.	.	.	.	.
=17	=17	=17	=17	=17	=17	=17	=17	=17	=17	=17	=17	=17	=17
*rep	*	*	*	*	*	*	*	*	*	*	*	*	*
(8E-\L	2ee-\	2.r	.	.	2.r	.	.	2.r	.	.	2.r	.	.
8G\	.	.	.	.	.	.	.	.	.	.	.	.	.
8B-\	.	.	.	.	.	.	.	.	.	.	.	.	.
8e-\	.	.	.	.	.	.	.	.	.	.	.	.	.
8B-\	4gg\	.	.	.	.	.	.	.	.	.	.	.	.
8G\J)	.	.	.	.	.	.	.	.	.	.	.	.	.
*Xrep	*	*	*	*	*	*	*	*	*	*	*	*	*
!!LO:PB:g=original
=18	=18	=18	=18	=18	=18	=18	=18	=18	=18	=18	=18	=18	=18
(8E-\L	4.ccc\	2.r	.	.	2.r	.	.	2.r	.	.	2.r	.	.
8G\	.	.	.	.	.	.	.	.	.	.	.	.	.
8B-\	.	.	.	.	.	.	.	.	.	.	.	.	.
8e-\	8bb-\	.	.	.	.	.	.	.	.	.	.	.	.
8B-\	4aan\	.	.	.	.	.	.	.	.	.	.	.	.
8G\J)	.	.	.	.	.	.	.	.	.	.	.	.	.
=19	=19	=19	=19	=19	=19	=19	=19	=19	=19	=19	=19	=19	=19
*rep	*	*	*	*	*	*	*	*	*	*	*	*	*
(8E-\L	2bb-\	2.r	.	.	2.r	.	.	2.r	.	.	2.r	.	.
8G\	.	.	.	.	.	.	.	.	.	.	.	.	.
8B-\	.	.	.	.	.	.	.	.	.	.	.	.	.
8e-\	.	.	.	.	.	.	.	.	.	.	.	.	.
8B-\	4gg\	.	.	.	.	.	.	.	.	.	.	.	.
8G\J)	.	.	.	.	.	.	.	.	.	.	.	.	.
*Xrep	*	*	*	*	*	*	*	*	*	*	*	*	*
=20	=20	=20	=20	=20	=20	=20	=20	=20	=20	=20	=20	=20	=20
*rep	*	*	*	*	*	*	*	*	*	*	*	*	*
(8E-\L	2ee-\	4r	.	.	4r	.	.	4r	.	.	4r	.	.
8G\	.	.	.	.	.	.	.	.	.	.	.	.	.
8B-\	.	4E-\	.	.	4B-\	.	.	4g/	.	.	4b-\	Be-	.
8e-\	.	.	.	.	.	.	.	.	.	.	.	.	.
8B-\	4gg\	4E-\	.	.	4B-\	.	.	4g/	.	.	4b-\	-ne-	.
8G\J)	.	.	.	.	.	.	.	.	.	.	.	.	.
*Xrep	*	*	*	*	*	*	*	*	*	*	*	*	*
=21	=21	=21	=21	=21	=21	=21	=21	=21	=21	=21	=21	=21	=21
(8BB-\L	(8ff\L	4.BB-/	.	.	4.d\	.	.	4.f/	.	.	4.b-\	-di-	.
8F\	8dd\	.	.	.	.	.	.	.	.	.	.	.	.
8A-\	8ff\	.	.	.	.	.	.	.	.	.	.	.	.
8B-\	8ccc\	8BB-/	.	.	8e-\	.	.	8f/	.	.	8cc\	-ci-	.
8A-\	8bb-\	4BB-/	.	.	4d\	.	.	4f/	.	.	4b-\	-te	.
8F\J)	8dd\J)	.	.	.	.	.	.	.	.	.	.	.	.
=22	=22	=22	=22	=22	=22	=22	=22	=22	=22	=22	=22	=22	=22
(8BB-\L	(8aa-\L	[2.BB-/	.	.	(4B-\	.	.	(4a-/	.	.	(4ff\	Do-	.
8D\	8ff\	.	.	.	.	.	.	.	.	.	.	.	.
8BB-\	8ee-\	.	.	.	4c\	.	.	4g/	.	.	4ee-\	.	.
8E-\	8gg\	.	.	.	.	.	.	.	.	.	.	.	.
8BB-\	8ff\	.	.	.	4d\	.	.	4f/	.	.	4dd\	.	.
8F\J)	8dd\J)	.	.	.	.	.	.	.	.	.	.	.	.
=23	=23	=23	=23	=23	=23	=23	=23	=23	=23	=23	=23	=23	=23
(8BB-\L	(8cc\L	2BB-/]	.	.	4e-\	.	.	4e-/	.	.	4cc\	.	.
8G\	8ee-\	.	.	.	.	.	.	.	.	.	.	.	.
8BB-\	8dd\	.	.	.	4f\)	.	.	4d/)	.	.	4b-\)	.	.
8A-\	8b-\	.	.	.	.	.	.	.	.	.	.	.	.
8BB-\	8a-\	4BB-/	.	.	4d\	.	.	4f/	.	.	4a-\	-mi-	.
8F\J)	8cc\J)	.	.	.	.	.	.	.	.	.	.	.	.
=24	=24	=24	=24	=24	=24	=24	=24	=24	=24	=24	=24	=24	=24
(8E-\L	4b-\	4E-\	.	.	4B-\	.	.	4e-/	.	.	4g/	-num	.
8G\	.	.	.	.	.	.	.	.	.	.	.	.	.
8B-\	4ee-\	4r	.	.	4r	.	.	4r	.	.	4r	.	.
8e-\	.	.	.	.	.	.	.	.	.	.	.	.	.
8B-\	4gg\	4r	.	.	4r	.	.	4r	.	.	4r	.	.
8G\J)	.	.	.	.	.	.	.	.	.	.	.	.	.
=25	=25	=25	=25	=25	=25	=25	=25	=25	=25	=25	=25	=25	=25
*rep	*	*	*	*	*	*	*	*	*	*	*	*	*
(8E-\L	4.ccc\	2.r	.	.	2.r	.	.	2.r	.	.	2.r	.	.
8G\	.	.	.	.	.	.	.	.	.	.	.	.	.
8B-\	.	.	.	.	.	.	.	.	.	.	.	.	.
8e-\	8bb-\	.	.	.	.	.	.	.	.	.	.	.	.
8B-\	4aan\	.	.	.	.	.	.	.	.	.	.	.	.
8G\J)	.	.	.	.	.	.	.	.	.	.	.	.	.
*Xrep	*	*	*	*	*	*	*	*	*	*	*	*	*
=26	=26	=26	=26	=26	=26	=26	=26	=26	=26	=26	=26	=26	=26
*rep	*	*	*	*	*	*	*	*	*	*	*	*	*
(8E-\L	2bb-\	2.r	.	.	2.r	.	.	2.r	.	.	2.r	.	.
8G\	.	.	.	.	.	.	.	.	.	.	.	.	.
8B-\	.	.	.	.	.	.	.	.	.	.	.	.	.
8e-\	.	.	.	.	.	.	.	.	.	.	.	.	.
8B-\	4gg\	.	.	.	.	.	.	.	.	.	.	.	.
8G\J)	.	.	.	.	.	.	.	.	.	.	.	.	.
*Xrep	*	*	*	*	*	*	*	*	*	*	*	*	*
=27	=27	=27	=27	=27	=27	=27	=27	=27	=27	=27	=27	=27	=27
*rep	*	*	*	*	*	*	*	*	*	*	*	*	*
(8E-\L	2ee-\	4r	.	.	4r	.	.	4r	.	.	4r	.	.
8G\	.	.	.	.	.	.	.	.	.	.	.	.	.
8B-\	.	4E-\	.	.	4B-\	.	.	4g/	.	.	4b-\	om-	.
8e-\	.	.	.	.	.	.	.	.	.	.	.	.	.
8B-\	4gg\	4E-\	.	.	4B-\	.	.	4g/	.	.	4b-\	-ne	.
8G\J)	.	.	.	.	.	.	.	.	.	.	.	.	.
*Xrep	*	*	*	*	*	*	*	*	*	*	*	*	*
=28	=28	=28	=28	=28	=28	=28	=28	=28	=28	=28	=28	=28	=28
(8BB-\L	(8ff\L	4.BB-/	.	.	4.d\	.	.	4.f/	.	.	4.b-\	An-	.
8F\	8dd\	.	.	.	.	.	.	.	.	.	.	.	.
8A-\	8ff\	.	.	.	.	.	.	.	.	.	.	.	.
8B-\	8ccc\	8BB-/	.	.	8e-\	.	.	8f/	.	.	8cc\	-ge-	.
8A-\	8bb-\	4BB-/	.	.	4d\	.	.	4f/	.	.	4b-\	-li	.
8F\J)	8dd\J)	.	.	.	.	.	.	.	.	.	.	.	.
!!LO:LB:g=original
=29	=29	=29	=29	=29	=29	=29	=29	=29	=29	=29	=29	=29	=29
(8BB-\L	(8aa-\L	4BB-/	.	.	4B-\	.	.	4a-/	.	.	4ff\	e-	.
8D\	8ff\	.	.	.	.	.	.	.	.	.	.	.	.
8BB-\	8ee-\	4BB-/	.	.	4c\	.	.	4g/	.	.	4ee-\	-jus	.
8E-\	8gg\	.	.	.	.	.	.	.	.	.	.	.	.
8BB-\	8ff\	4BB-/	.	.	4d\	.	.	4f/	.	.	4dd\	po-	.
8F\J)	8dd\J)	.	.	.	.	.	.	.	.	.	.	.	.
=30	=30	=30	=30	=30	=30	=30	=30	=30	=30	=30	=30	=30	=30
(8BB-\L	(8cc\L	4BB-/	.	.	4e-\	.	.	4e-/	.	.	4cc\	-ten-	.
8G\	8ee-\	.	.	.	.	.	.	.	.	.	.	.	.
8BB-\	8dd\	4BB-/	.	.	4f\	.	.	4d/	.	.	4b-\	-tes	.
8A-\	8b-\	.	.	.	.	.	.	.	.	.	.	.	.
8BB-\	8a-\	4BB-/	.	.	4d\	.	.	4f/	.	.	4a-/	vir-	.
8F\J)	8cc\J)	.	.	.	.	.	.	.	.	.	.	.	.
=31	=31	=31	=31	=31	=31	=31	=31	=31	=31	=31	=31	=31	=31
(8E-\L	(8b-\L	4E-\	.	.	4B-\	.	.	4e-/	.	.	4g/	-tu-	.
8G\	8g\	.	.	.	.	.	.	.	.	.	.	.	.
8B-\	8e-\	4E-\	.	.	4B-\	.	.	4e-/	.	.	4g/	-te	.
8e-\	8g\	.	.	.	.	.	.	.	.	.	.	.	.
8B-\	8b-\	4E-\	.	.	4B-\	.	.	4e-/	.	.	4g/	qui	.
8G\J)	8ee-\J)	.	.	.	.	.	.	.	.	.	.	.	.
=32	=32	=32	=32	=32	=32	=32	=32	=32	=32	=32	=32	=32	=32
(8E-\L	(8b-\L	4.E-\	.	.	4.B-\	.	.	4.g/	.	.	4.b-\	fa-	.
8G\	8ee-\	.	.	.	.	.	.	.	.	.	.	.	.
8B-\	8gg\	.	.	.	.	.	.	.	.	.	.	.	.
8E-\	8g\	8E-\	.	.	8Bn\	.	.	8g/	.	.	8gg\	-ci-	.
8D\	8dd\	4D\	.	.	4B\	.	.	4g/	.	.	4dd\	-tis	.
8Bn\J)	[8ff\J)	.	.	.	.	.	.	.	.	.	.	.	.
=33	=33	=33	=33	=33	=33	=33	=33	=33	=33	=33	=33	=33	=33
(8C\L	(8ff\L]	4C/	.	.	4c\	.	.	4a-/	.	.	4ff\	ver-	.
8c\	8a-\	.	.	.	.	.	.	.	.	.	.	.	.
8A-\	8cc\	4AA-/	.	.	4c\	.	.	4a-/	.	.	4ee-\	-bum	.
8c\	8ee-\	.	.	.	.	.	.	.	.	.	.	.	.
8A-\	8cc\	4A-\	.	.	4d\	.	.	4a-/	.	.	4cc\	qui	.
8d\J)	8a-\J)	.	.	.	.	.	.	.	.	.	.	.	.
=34	=34	=34	=34	=34	=34	=34	=34	=34	=34	=34	=34	=34	=34
(8E-\L	(8b-\L	4.E-\	.	.	4.e-\	.	.	4.g/	.	.	4.b-\	fa-	.
8G\	8ee-\	.	.	.	.	.	.	.	.	.	.	.	.
8B-\	8gg\	.	.	.	.	.	.	.	.	.	.	.	.
8E-\	8g\	8E-\	.	.	8B-\	.	.	8g/	.	.	8gg\	-ci-	.
8D\	8dd\	4D\	.	.	4Bn\	.	.	4g/	.	.	4dd\	-tis	.
8Bn\J)	8ff\J)	.	.	.	.	.	.	.	.	.	.	.	.
=35	=35	=35	=35	=35	=35	=35	=35	=35	=35	=35	=35	=35	=35
(8C\L	(8ff\L	(4C\	.	.	2c\	.	.	2a-/	.	.	(4ff\	ver-	.
8c\	8a-\	.	.	.	.	.	.	.	.	.	.	.	.
8A-\	8cc\	4AA-\)	.	.	.	.	.	.	.	.	4ee-\)	.	.
8c\	8ee-\	.	.	.	.	.	.	.	.	.	.	.	.
8A-\	8cc\	4A-\	.	.	4d\	.	.	4a-/	.	.	4cc\	-bum	.
8d\J)	8a-\J)	.	.	.	.	.	.	.	.	.	.	.	.
=36	=36	=36	=36	=36	=36	=36	=36	=36	=36	=36	=36	=36	=36
(8E-\L	(8g\L	2.E-\	.	.	[2.e-\	.	.	2.g/	.	.	2.b-\	e-	.
8G\	8b-\	.	.	.	.	.	.	.	.	.	.	.	.
8B-\	8ee-\	.	.	.	.	.	.	.	.	.	.	.	.
8e-\	8gg\	.	.	.	.	.	.	.	.	.	.	.	.
8B-\	8ee-\	.	.	.	.	.	.	.	.	.	.	.	.
8G\J)	8b-\J)	.	.	.	.	.	.	.	.	.	.	.	.
=37	=37	=37	=37	=37	=37	=37	=37	=37	=37	=37	=37	=37	=37
(8AA-\L	(8cc\L	2.AA-/	.	.	2.e-\]	.	.	2.f/	.	.	2.cc\	.	.
8C\	8a-\	.	.	.	.	.	.	.	.	.	.	.	.
8E-\	8f\	.	.	.	.	.	.	.	.	.	.	.	.
8A-\	8en\	.	.	.	.	.	.	.	.	.	.	.	.
8E-\	8f\	.	.	.	.	.	.	.	.	.	.	.	.
8C\J)	8a-\J)	.	.	.	.	.	.	.	.	.	.	.	.
=38	=38	=38	=38	=38	=38	=38	=38	=38	=38	=38	=38	=38	=38
4BB-/	(8f/L	[2.BB-/	.	.	2.B-\	.	.	2.e-/	.	.	2.f/	.	.
.	8e-/	.	.	.	.	.	.	.	.	.	.	.	.
4r	8B-/	.	.	.	.	.	.	.	.	.	.	.	.
.	8e-/	.	.	.	.	.	.	.	.	.	.	.	.
4r	8f/	.	.	.	.	.	.	.	.	.	.	.	.
.	8b-/J)	.	.	.	.	.	.	.	.	.	.	.	.
=39	=39	=39	=39	=39	=39	=39	=39	=39	=39	=39	=39	=39	=39
!	!	!LO:N:vis=2	!	!	!	!	!	!	!	!	!	!	!
4BB-/	(8f/L	2.BB-/]	.	.	2.A-/	.	.	2.d/	.	.	2.b-\	.	.
.	8d/	.	.	.	.	.	.	.	.	.	.	.	.
4r	8B-/	.	.	.	.	.	.	.	.	.	.	.	.
.	8d/	.	.	.	.	.	.	.	.	.	.	.	.
4r	8f/	.	.	.	.	.	.	.	.	.	.	.	.
.	8b-/J)	.	.	.	.	.	.	.	.	.	.	.	.
!!LO:PB:g=original
=40	=40	=40	=40	=40	=40	=40	=40	=40	=40	=40	=40	=40	=40
(8E-\L	4e-/	4E-\	.	.	4G/	.	.	4e-/	.	.	4e-/	-jus	.
8G\	.	.	.	.	.	.	.	.	.	.	.	.	.
8B-\	4ee-\	4r	.	.	4r	.	.	4r	.	.	4r	.	.
8e-\	.	.	.	.	.	.	.	.	.	.	.	.	.
8B-\	4gg\	4r	.	.	4r	.	.	4r	.	.	4r	.	.
8G\J)	.	.	.	.	.	.	.	.	.	.	.	.	.
=41	=41	=41	=41	=41	=41	=41	=41	=41	=41	=41	=41	=41	=41
(8D\L	4.ccc\	2.r	.	.	2.r	.	.	2.r	.	.	2.r	.	.
8F\	.	.	.	.	.	.	.	.	.	.	.	.	.
8B-\	.	.	.	.	.	.	.	.	.	.	.	.	.
8d\	8bb-\	.	.	.	.	.	.	.	.	.	.	.	.
8B-\	4aan\	.	.	.	.	.	.	.	.	.	.	.	.
8F\J)	.	.	.	.	.	.	.	.	.	.	.	.	.
=42	=42	=42	=42	=42	=42	=42	=42	=42	=42	=42	=42	=42	=42
(8C\L	4.bb-\	2.r	.	.	2.r	.	.	2.r	.	.	2.r	.	.
8E-\	.	.	.	.	.	.	.	.	.	.	.	.	.
8G\	.	.	.	.	.	.	.	.	.	.	.	.	.
8c\	8aan\L	.	.	.	.	.	.	.	.	.	.	.	.
8G\	8gg\	.	.	.	.	.	.	.	.	.	.	.	.
8E-\J)	8ff\J	.	.	.	.	.	.	.	.	.	.	.	.
=43	=43	=43	=43	=43	=43	=43	=43	=43	=43	=43	=43	=43	=43
(8F\L	(8een\L	2.r	.	.	2.r	.	.	2.r	.	.	2.r	.	.
8A-\	8ff\	.	.	.	.	.	.	.	.	.	.	.	.
8c\	8gg\	.	.	.	.	.	.	.	.	.	.	.	.
8e-\	8ff\	.	.	.	.	.	.	.	.	.	.	.	.
8c\	8ee-X\	.	.	.	.	.	.	.	.	.	.	.	.
8A-\J)	8cc\J)	.	.	.	.	.	.	.	.	.	.	.	.
=44	=44	=44	=44	=44	=44	=44	=44	=44	=44	=44	=44	=44	=44
!	!	!	!	!	!	!	!	!	!	!	!LO:TX:a:t=Solo	!	!LO:DY:b:rj
4B-\	(8b-/L	2.r	.	.	2.r	.	.	2.r	.	.	2b-\	Be-	p
.	8f/	.	.	.	.	.	.	.	.	.	.	.	.
4r	8d/	.	.	.	.	.	.	.	.	.	.	.	<
.	8f/	.	.	.	.	.	.	.	.	.	.	.	.
4r	8B-/	.	.	.	.	.	.	.	.	.	4dd\	-ne-	[[
.	8d/J)	.	.	.	.	.	.	.	.	.	.	.	.
=45	=45	=45	=45	=45	=45	=45	=45	=45	=45	=45	=45	=45	=45
*	*clefF4	*	*	*	*	*	*	*	*	*	*	*	*
[2.BB-/	(8F\L	2.r	.	.	2.r	.	.	2.r	.	.	4.gg\	-di-	>
.	8B-\	.	.	.	.	.	.	.	.	.	.	.	.
.	8d\	.	.	.	.	.	.	.	.	.	.	.	]
.	8f\	.	.	.	.	.	.	.	.	.	8ff\	-ci-	.
.	8d\	.	.	.	.	.	.	.	.	.	4een\	-mus	.
.	8B-\J)	.	.	.	.	.	.	.	.	.	.	.	.
=46	=46	=46	=46	=46	=46	=46	=46	=46	=46	=46	=46	=46	=46
*	*rep	*	*	*	*	*	*	*	*	*	*	*	*
2.BB-/_	(8F\L	2.r	.	.	2.r	.	.	2.r	.	.	(4ff^<\	Do-	.
.	8B-\	.	.	.	.	.	.	.	.	.	.	.	.
.	8d\	.	.	.	.	.	.	.	.	.	16ff\LL)	.	.
.	.	.	.	.	.	.	.	.	.	.	16een\	.	.
.	8f\	.	.	.	.	.	.	.	.	.	16gg\	.	.
.	.	.	.	.	.	.	.	.	.	.	16ff\JJ	.	.
.	8d\	.	.	.	.	.	.	.	.	.	16ee\LL	-mi-	.
.	.	.	.	.	.	.	.	.	.	.	16ff\	.	.
.	8B-\J)	.	.	.	.	.	.	.	.	.	16dd\	.	.
.	.	.	.	.	.	.	.	.	.	.	16b-\JJ	.	.
*	*Xrep	*	*	*	*	*	*	*	*	*	*	*	*
=47	=47	=47	=47	=47	=47	=47	=47	=47	=47	=47	=47	=47	=47
*	*rep	*	*	*	*	*	*	*	*	*	*	*	*
2.BB-/]	(8F\L	2.r	.	.	2.r	.	.	2.r	.	.	8f/	-num	.
.	8B-\	.	.	.	.	.	.	.	.	.	8r	.	.
.	8d\	.	.	.	.	.	.	.	.	.	4b-\	om-	.
.	8f\	.	.	.	.	.	.	.	.	.	.	.	.
.	8d\	.	.	.	.	.	.	.	.	.	4dd\	-ne	.
.	8B-\J)	.	.	.	.	.	.	.	.	.	.	.	.
*	*Xrep	*	*	*	*	*	*	*	*	*	*	*	*
=48	=48	=48	=48	=48	=48	=48	=48	=48	=48	=48	=48	=48	=48
*	*clefG2	*	*	*	*	*	*	*	*	*	*	*	*
2E-\	(8G/L	2.r	.	.	2.r	.	.	2.r	.	.	2cc\	An-	.
.	8c/	.	.	.	.	.	.	.	.	.	.	.	.
.	8g/	.	.	.	.	.	.	.	.	.	.	.	.
.	8c/	.	.	.	.	.	.	.	.	.	.	.	.
4D\	8Bn/	.	.	.	.	.	.	.	.	.	4dd\	.	.
.	8f/J)	.	.	.	.	.	.	.	.	.	.	.	.
=49	=49	=49	=49	=49	=49	=49	=49	=49	=49	=49	=49	=49	=49
2C/	(8c/L	2.r	.	.	2.r	.	.	2.r	.	.	8ee-\L	.	.
.	8e-/	.	.	.	.	.	.	.	.	.	8ff#X\	.	.
.	8g/	.	.	.	.	.	.	.	.	.	8gg\	.	.
.	8e-/	.	.	.	.	.	.	.	.	.	8dd\	.	.
.	.	.	.	.	.	.	.	.	.	.	8qffn/	.	.
4EE-/	8c/	.	.	.	.	.	.	.	.	.	8ee-\	.	.
.	8G/J)	.	.	.	.	.	.	.	.	.	8cc\J	.	.
!!LO:LB:g=original
=50	=50	=50	=50	=50	=50	=50	=50	=50	=50	=50	=50	=50	=50
[2.FF/	8B-/L	2.r	.	.	2.r	.	.	2.r	.	.	8b-\L	.	.
.	(8d/	.	.	.	.	.	.	.	.	.	16cc\L	.	.
.	.	.	.	.	.	.	.	.	.	.	16b-\JJ	.	.
.	8f/	.	.	.	.	.	.	.	.	.	16an\LL	.	.
.	.	.	.	.	.	.	.	.	.	.	16b-\	.	.
.	8d/	.	.	.	.	.	.	.	.	.	16gg\	.	.
.	.	.	.	.	.	.	.	.	.	.	16ff\JJ	.	.
.	8B-/)	.	.	.	.	.	.	.	.	.	16ee-\LL	.	.
.	.	.	.	.	.	.	.	.	.	.	16dd\	.	.
.	8F/J	.	.	.	.	.	.	.	.	.	16cc\	-ge-	.
.	.	.	.	.	.	.	.	.	.	.	16b-\JJ	.	.
=51	=51	=51	=51	=51	=51	=51	=51	=51	=51	=51	=51	=51	=51
*	*clefF4	*	*	*	*	*	*	*	*	*	*	*	*
2.FF/]	(8An\L	2.r	.	.	2.r	.	.	2.r	.	.	4an/	-li	.
.	8c\	.	.	.	.	.	.	.	.	.	.	.	.
.	8f\	.	.	.	.	.	.	.	.	.	4r	.	.
.	8e-\	.	.	.	.	.	.	.	.	.	.	.	.
.	8c\	.	.	.	.	.	.	.	.	.	4r	.	.
.	8A\J)	.	.	.	.	.	.	.	.	.	.	.	.
=52	=52	=52	=52	=52	=52	=52	=52	=52	=52	=52	=52	=52	=52
[2.BB-/	(8F\L	2.r	.	.	2.r	.	.	2.r	.	.	2b-\	Be-	<
.	8B-\	.	.	.	.	.	.	.	.	.	.	.	.
.	8d\	.	.	.	.	.	.	.	.	.	.	.	.
.	8f\	.	.	.	.	.	.	.	.	.	.	.	.
.	8d\	.	.	.	.	.	.	.	.	.	4dd\	-ne-	[
.	8B-\J)	.	.	.	.	.	.	.	.	.	.	.	.
=53	=53	=53	=53	=53	=53	=53	=53	=53	=53	=53	=53	=53	=53
*	*rep	*	*	*	*	*	*	*	*	*	*	*	*
2.BB-/_	(8F\L	2.r	.	.	2.r	.	.	2.r	.	.	4.gg\	-di-	>
.	8B-\	.	.	.	.	.	.	.	.	.	.	.	.
.	8d\	.	.	.	.	.	.	.	.	.	.	.	.
.	8f\	.	.	.	.	.	.	.	.	.	8ff\	-ci-	]
.	8d\	.	.	.	.	.	.	.	.	.	4een\	-te	.
.	8B-\J)	.	.	.	.	.	.	.	.	.	.	.	.
*	*Xrep	*	*	*	*	*	*	*	*	*	*	*	*
=54	=54	=54	=54	=54	=54	=54	=54	=54	=54	=54	=54	=54	=54
*	*rep	*	*	*	*	*	*	*	*	*	*	*	*
2.BB-/_	(8F\L	2.r	.	.	2.r	.	.	2.r	.	.	[4ff^\	Do-	.
.	8B-\	.	.	.	.	.	.	.	.	.	.	.	.
.	8d\	.	.	.	.	.	.	.	.	.	16ff\LL]	.	.
.	.	.	.	.	.	.	.	.	.	.	16een\	.	.
.	8f\	.	.	.	.	.	.	.	.	.	16ff\	.	.
.	.	.	.	.	.	.	.	.	.	.	16gg\JJ	.	.
.	8d\	.	.	.	.	.	.	.	.	.	16aan\LL	-mi-	.
.	.	.	.	.	.	.	.	.	.	.	16bb-\	.	.
.	8B-\J)	.	.	.	.	.	.	.	.	.	16ff\	.	.
.	.	.	.	.	.	.	.	.	.	.	16dd\JJ	.	.
*	*Xrep	*	*	*	*	*	*	*	*	*	*	*	*
=55	=55	=55	=55	=55	=55	=55	=55	=55	=55	=55	=55	=55	=55
*	*rep	*	*	*	*	*	*	*	*	*	*	*	*
2.BB-/]	(8F\L	2.r	.	.	2.r	.	.	2.r	.	.	8b-\	-num	.
.	8B-\	.	.	.	.	.	.	.	.	.	8r	.	.
.	8d\	.	.	.	.	.	.	.	.	.	4b-\	om-	.
.	8f\	.	.	.	.	.	.	.	.	.	.	.	.
.	8d\	.	.	.	.	.	.	.	.	.	4dd\	-ne	.
.	8B-\J)	.	.	.	.	.	.	.	.	.	.	.	.
*	*Xrep	*	*	*	*	*	*	*	*	*	*	*	*
=56	=56	=56	=56	=56	=56	=56	=56	=56	=56	=56	=56	=56	=56
*	*clefG2	*	*	*	*	*	*	*	*	*	*	*	*
[2.EE-/	8G/L	2.r	.	.	2.r	.	.	2.r	.	.	2cc\	An-	.
.	(8c/	.	.	.	.	.	.	.	.	.	.	.	.
.	8e-/	.	.	.	.	.	.	.	.	.	.	.	.
.	8g/	.	.	.	.	.	.	.	.	.	.	.	.
.	8e-/)	.	.	.	.	.	.	.	.	.	4ee-\	.	.
.	8c/J	.	.	.	.	.	.	.	.	.	.	.	.
=57	=57	=57	=57	=57	=57	=57	=57	=57	=57	=57	=57	=57	=57
2.EE-/]	8G/L	2.r	.	.	2.r	.	.	2.r	.	.	2gg\	.	.
.	(8c/	.	.	.	.	.	.	.	.	.	.	.	.
.	8e-/	.	.	.	.	.	.	.	.	.	.	.	.
.	8c/	.	.	.	.	.	.	.	.	.	.	.	.
.	8B-/	.	.	.	.	.	.	.	.	.	[4gg-X\	.	.
.	8g-X/J)	.	.	.	.	.	.	.	.	.	.	.	.
=58	=58	=58	=58	=58	=58	=58	=58	=58	=58	=58	=58	=58	=58
2.FF/	8An/L	2.r	.	.	2.r	.	.	2.r	.	.	16gg-X\LL]	.	.
.	.	.	.	.	.	.	.	.	.	.	16ff\	.	.
.	(8c/	.	.	.	.	.	.	.	.	.	16een\	.	.
.	.	.	.	.	.	.	.	.	.	.	16ff\JJ	.	.
.	8e-/	.	.	.	.	.	.	.	.	.	16aan\LL	.	.
.	.	.	.	.	.	.	.	.	.	.	16ggn\	.	.
.	8f/	.	.	.	.	.	.	.	.	.	16ff\	.	.
.	.	.	.	.	.	.	.	.	.	.	16ee-X\JJ	.	.
.	8e-/)	.	.	.	.	.	.	.	.	.	16dd\LL	-ge-	.
.	.	.	.	.	.	.	.	.	.	.	16ee-\	.	.
.	8c/J	.	.	.	.	.	.	.	.	.	16cc\	.	.
.	.	.	.	.	.	.	.	.	.	.	16an\JJ	.	.
=59	=59	=59	=59	=59	=59	=59	=59	=59	=59	=59	=59	=59	=59
[2.BB-/	8B-/L	2.r	.	.	2.r	.	.	2.r	.	.	4b-\	-li	.
.	(8d/	.	.	.	.	.	.	.	.	.	.	.	.
.	8f/	.	.	.	.	.	.	.	.	.	4r	.	.
.	8b-/	.	.	.	.	.	.	.	.	.	.	.	.
.	8f/	.	.	.	.	.	.	.	.	.	4r	.	.
.	8d/J)	.	.	.	.	.	.	.	.	.	.	.	.
!!LO:PB:g=original
=60	=60	=60	=60	=60	=60	=60	=60	=60	=60	=60	=60	=60	=60
!LO:TX:t=P:problem:brak zakończenia ligatury	!	!	!	!	!	!	!	!	!	!	!	!	!
2.BB-/_	8B-/L	2.r	.	.	2.r	.	.	2.r	.	.	4dd\	e-	.
.	(8d/	.	.	.	.	.	.	.	.	.	.	.	.
.	8f/	.	.	.	.	.	.	.	.	.	4dd\	-jus	.
.	8b-/	.	.	.	.	.	.	.	.	.	.	.	.
.	8f/)	.	.	.	.	.	.	.	.	.	4ee-\	po-	.
.	8d/J	.	.	.	.	.	.	.	.	.	.	.	.
=61	=61	=61	=61	=61	=61	=61	=61	=61	=61	=61	=61	=61	=61
2.BB-/]	8B-/L	2.r	.	.	2.r	.	.	2.r	.	.	8een\L	-ten-	.
.	(8d/	.	.	.	.	.	.	.	.	.	8ff\J	.	.
.	8f/	.	.	.	.	.	.	.	.	.	8gg\L	-tes	.
.	8a-X/	.	.	.	.	.	.	.	.	.	8ff\J	.	.
.	8f/	.	.	.	.	.	.	.	.	.	8dd\L	vir-	.
.	8d/J)	.	.	.	.	.	.	.	.	.	8b-\J	.	.
=62	=62	=62	=62	=62	=62	=62	=62	=62	=62	=62	=62	=62	=62
2.EE-/	8G/L	2.r	.	.	2.r	.	.	2.r	.	.	(4.gg\	-tu-	.
.	(8B-/	.	.	.	.	.	.	.	.	.	.	.	.
.	8e-/	.	.	.	.	.	.	.	.	.	.	.	.
.	8g/	.	.	.	.	.	.	.	.	.	8ee-X\L	.	.
.	8e-/)	.	.	.	.	.	.	.	.	.	8b-\	.	.
.	8B-/J	.	.	.	.	.	.	.	.	.	8ee-\J)	.	.
=63	=63	=63	=63	=63	=63	=63	=63	=63	=63	=63	=63	=63	=63
*	*^	*	*	*	*	*	*	*	*	*	*	*	*
2EE-/	8G/L	2ryy	2.r	.	.	2.r	.	.	2.r	.	.	2g/	-te	.
.	8B-/	.	.	.	.	.	.	.	.	.	.	.	.	.
.	8e-/	.	.	.	.	.	.	.	.	.	.	.	.	.
.	8g/J	.	.	.	.	.	.	.	.	.	.	.	.	.
4EEn/	8c#X/L	4B-\	.	.	.	.	.	.	.	.	.	4gg\	qui	.
.	8g/J	.	.	.	.	.	.	.	.	.	.	.	.	.
*	*v	*v	*	*	*	*	*	*	*	*	*	*	*	*
*	*clefF4	*	*	*	*	*	*	*	*	*	*	*	*
=64	=64	=64	=64	=64	=64	=64	=64	=64	=64	=64	=64	=64	=64
[2.FF/	(8F\L	2.r	.	.	2.r	.	.	2.r	.	.	4.ff\	ta-	.
.	8B-\	.	.	.	.	.	.	.	.	.	.	.	.
.	8d\	.	.	.	.	.	.	.	.	.	.	.	.
.	8f\	.	.	.	.	.	.	.	.	.	8een\	-ci-	.
.	8d\	.	.	.	.	.	.	.	.	.	4ff\	-tis	.
.	8B-\J)	.	.	.	.	.	.	.	.	.	.	.	.
=65	=65	=65	=65	=65	=65	=65	=65	=65	=65	=65	=65	=65	=65
2.FF/]	(8F\L	2.r	.	.	2.r	.	.	2.r	.	.	16aan\LL	ver-	.
.	.	.	.	.	.	.	.	.	.	.	16gg\	.	.
.	8An\	.	.	.	.	.	.	.	.	.	16ff\	.	.
.	.	.	.	.	.	.	.	.	.	.	16een\JJ	.	.
.	8c\	.	.	.	.	.	.	.	.	.	16ff\LL	.	.
.	.	.	.	.	.	.	.	.	.	.	16ee-X\	.	.
.	8e-\	.	.	.	.	.	.	.	.	.	16cc\	.	.
.	.	.	.	.	.	.	.	.	.	.	16an\JJ	.	.
!	!	!	!	!	!	!	!	!	!	!	!LO:TUP:b:problem:klamra łukowa	!	!
.	8c\	.	.	.	.	.	.	.	.	.	12f/L	-bum	.
.	.	.	.	.	.	.	.	.	.	.	12dd/	.	.
.	8A\J)	.	.	.	.	.	.	.	.	.	.	.	.
.	.	.	.	.	.	.	.	.	.	.	12cc/J	.	.
*	*clefG2	*	*	*	*	*	*	*	*	*	*	*	*
=66	=66	=66	=66	=66	=66	=66	=66	=66	=66	=66	=66	=66	=66
.	.	.	.	.	.	.	.	.	.	.	8qqcc/	.	.
4BB-/	8B-/L	2.r	.	.	2.r	.	.	2.r	.	.	4b-\	e-	.
.	(8d/	.	.	.	.	.	.	.	.	.	.	.	.
4r	8f/	.	.	.	.	.	.	.	.	.	8b-\	-jus	.
.	8b-/	.	.	.	.	.	.	.	.	.	8r	.	.
4r	8a-X/	.	.	.	.	.	.	.	.	.	4r	.	.
.	8f/J)	.	.	.	.	.	.	.	.	.	.	.	.
=67	=67	=67	=67	=67	=67	=67	=67	=67	=67	=67	=67	=67	=67
8r	8d/	2.r	.	.	2.r	.	.	2.r	.	.	2.r	.	.
(8B-\L	8r	.	.	.	.	.	.	.	.	.	.	.	.
8An\	4r	.	.	.	.	.	.	.	.	.	.	.	.
8A-X\	.	.	.	.	.	.	.	.	.	.	.	.	.
8G\	4r	.	.	.	.	.	.	.	.	.	.	.	.
8F\J)	.	.	.	.	.	.	.	.	.	.	.	.	.
=68	=68	=68	=68	=68	=68	=68	=68	=68	=68	=68	=68	=68	=68
2E-\	2.r	2E-\	Be-	.	2.r	.	.	2.r	.	.	2.r	.	.
4G\	.	4G\	-ne-	.	.	.	.	.	.	.	.	.	.
=69	=69	=69	=69	=69	=69	=69	=69	=69	=69	=69	=69	=69	=69
4.c\	2.r	4.c\	-di-	.	2.r	.	.	2.r	.	.	2.r	.	.
8B-\	.	8B-\	-ci-	.	.	.	.	.	.	.	.	.	.
4An\	.	4An\	-te	.	.	.	.	.	.	.	.	.	.
!!LO:LB:g=original
=70	=70	=70	=70	=70	=70	=70	=70	=70	=70	=70	=70	=70	=70
2B-\	2.r	2B-\	Do-	.	2.r	.	.	2.r	.	.	2.r	.	.
4G\	.	4G\	-mi-	.	.	.	.	.	.	.	.	.	.
=71	=71	=71	=71	=71	=71	=71	=71	=71	=71	=71	=71	=71	=71
!	!	!	!	!	!	!	!	!	!	!	!LO:TX:a:i:t=tutti	!	!
4E-\	4r	4E-\	-num	.	4r	.	.	4r	.	.	4r	.	.
4r	4b- 4g\	4r	.	.	4B-\	om-	.	4g/	.	.	4b-\	om-	.
4r	4ee- 4g\	4r	.	.	4B-\	-ne	.	4g/	.	.	4ee-\	-ne	.
=72	=72	=72	=72	=72	=72	=72	=72	=72	=72	=72	=72	=72	=72
*	*^	*	*	*	*	*	*	*	*	*	*	*	*
[2.BB-/	2ee-/	2.a- 2.f\	4r	.	.	2.A-/	An-	.	2.f/	.	.	2ee-\	An-	.
.	.	.	4BB-/	om-	.	.	.	.	.	.	.	.	.	.
.	4dd/	.	4BB-/	-ne	.	.	.	.	.	.	.	4dd\	.	.
*	*v	*v	*	*	*	*	*	*	*	*	*	*	*	*
=73	=73	=73	=73	=73	=73	=73	=73	=73	=73	=73	=73	=73	=73
2.BB-/]	4ee- 4g\	2.BB-/	An-	.	4G/	.	.	[2.b-\	.	.	4ee-\	.	.
.	4ff 4dd 4b-\	.	.	.	4F/	.	.	.	.	.	4ff\	.	.
.	4gg 4ee- 4b-\	.	.	.	4E-/	.	.	.	.	.	4gg\	.	.
=74	=74	=74	=74	=74	=74	=74	=74	=74	=74	=74	=74	=74	=74
2.F 2.FF/	4ff 4dd 4b-\	2F\	.	.	4F/	.	.	2b-\]	.	.	4ff\	.	.
.	4dd 4b-\	.	.	.	4f\	.	.	.	.	.	4dd\	.	.
.	8ccL 8an\	4F\	-ge-	.	4e-\	-ge-	.	4an\	.	.	8cc\L	-ge-	.
.	8dd\J	.	.	.	.	.	.	.	.	.	8dd\J	.	.
=75	=75	=75	=75	=75	=75	=75	=75	=75	=75	=75	=75	=75	=75
4B- 4BB-\	4b-\	4B-\	-li	.	4d\	-li	.	4b-\	.	.	4b-\	-li	.
4r	4r	4r	.	.	4r	.	.	4r	.	.	4r	.	.
4r	4r	4r	.	.	4r	.	.	4r	.	.	4r	.	.
=76	=76	=76	=76	=76	=76	=76	=76	=76	=76	=76	=76	=76	=76
2B-\	2.r	2.r	.	.	2B-\	Be-	.	2.r	.	.	2.r	.	.
4d\	.	.	.	.	4d\	-ne-	.	.	.	.	.	.	.
=77	=77	=77	=77	=77	=77	=77	=77	=77	=77	=77	=77	=77	=77
4.g\	2.r	2.r	.	.	4.g\	-di-	.	2.r	.	.	2.r	.	.
8f\	.	.	.	.	8f\	-ci-	.	.	.	.	.	.	.
4en\	.	.	.	.	4en\	-te	.	.	.	.	.	.	.
=78	=78	=78	=78	=78	=78	=78	=78	=78	=78	=78	=78	=78	=78
2f\	2.r	2.r	.	.	2f\	Do-	.	2.r	.	.	2.r	.	.
4d\	.	.	.	.	4d\	-mi-	.	.	.	.	.	.	.
=79	=79	=79	=79	=79	=79	=79	=79	=79	=79	=79	=79	=79	=79
4B-\	4r	4r	.	.	4B-\	-num	.	4r	.	.	4r	.	.
*	*	*	*	*	*	*	*	*	*ij	*	*	*	*
4BB-/	4ff 4a-\	4BB-\	om-	.	4r	.	.	4a-/	om-	.	4ff\	om-	.
4B-\	4b- 4a-/	4B-\	-ne	.	4r	.	.	4a-/	-ne	.	4b-\	-ne	.
=80	=80	=80	=80	=80	=80	=80	=80	=80	=80	=80	=80	=80	=80
[2.B- [>2.BB-\	[2.ee- [2.b- [2.g\	[2.B-\	An	.	4r	.	.	[2.g/	An-	.	4ee-\	An-	.
.	.	.	.	.	4B-\	om-	.	.	.	.	4gg\	.	.
.	.	.	.	.	4e-\	-ne	.	.	.	.	4b-\	.	.
=81	=81	=81	=81	=81	=81	=81	=81	=81	=81	=81	=81	=81	=81
2.B-] 2.BB-\]	4ee-] 4b-] 4g\]	2.B-\]	.	.	4g\	An-	.	2.g/]	.	.	4ee-\	.	.
.	4g 4e-/	.	.	.	4B-\	.	.	.	.	.	4g\	.	.
.	4cc 4e-/	.	.	.	4e-\	.	.	.	.	.	4cc\	.	.
!!LO:PB:g=original
=82	=82	=82	=82	=82	=82	=82	=82	=82	=82	=82	=82	=82	=82
2.B- 2.BB-\	4b- 4d/	2BB-/	.	.	2d\	.	.	2f/	.	.	4b-/	.	.
.	4f 4d/	.	.	.	.	.	.	.	.	.	4f/	.	.
.	4a- 4f/	4BB-/	.	.	4d\	-ge-	.	4f/	-ge-	.	4a-/	-ge-	.
=83	=83	=83	=83	=83	=83	=83	=83	=83	=83	=83	=83	=83	=83
(8E-\L	4g 4e-/	4E-\	.	.	4e-\	-li	.	4e-/	-li	.	4g/	-li	.
*	*	*	*	*	*	*	*	*	*Xij	*	*	*	*
8G\	.	.	.	.	.	.	.	.	.	.	.	.	.
8B-\	4r	4r	.	.	4r	.	.	4r	.	.	4r	.	.
8e-\	.	.	.	.	.	.	.	.	.	.	.	.	.
8B-\	4r	4r	.	.	4r	.	.	4r	.	.	4r	.	.
8G\J)	.	.	.	.	.	.	.	.	.	.	.	.	.
=84	=84	=84	=84	=84	=84	=84	=84	=84	=84	=84	=84	=84	=84
*rep	*	*	*	*	*	*	*	*	*	*	*	*	*
(8E-\L	2ee-\	2.r	.	.	2.r	.	.	2.r	.	.	2.r	.	.
8G\	.	.	.	.	.	.	.	.	.	.	.	.	.
8B-\	.	.	.	.	.	.	.	.	.	.	.	.	.
8e-\	.	.	.	.	.	.	.	.	.	.	.	.	.
8B-\	4gg\	.	.	.	.	.	.	.	.	.	.	.	.
8G\J)	.	.	.	.	.	.	.	.	.	.	.	.	.
*Xrep	*	*	*	*	*	*	*	*	*	*	*	*	*
=85	=85	=85	=85	=85	=85	=85	=85	=85	=85	=85	=85	=85	=85
*rep	*	*	*	*	*	*	*	*	*	*	*	*	*
(8E-\L	4.ccc\	2.r	.	.	2.r	.	.	2.r	.	.	2.r	.	.
8G\	.	.	.	.	.	.	.	.	.	.	.	.	.
8B-\	.	.	.	.	.	.	.	.	.	.	.	.	.
8e-\	8bb-\	.	.	.	.	.	.	.	.	.	.	.	.
8B-\	4aan\	.	.	.	.	.	.	.	.	.	.	.	.
8G\J)	.	.	.	.	.	.	.	.	.	.	.	.	.
*Xrep	*	*	*	*	*	*	*	*	*	*	*	*	*
=86	=86	=86	=86	=86	=86	=86	=86	=86	=86	=86	=86	=86	=86
*rep	*	*	*	*	*	*	*	*	*	*	*	*	*
(8E-\L	2bb-\	2.r	.	.	2.r	.	.	2.r	.	.	2.r	.	.
8G\	.	.	.	.	.	.	.	.	.	.	.	.	.
8B-\	.	.	.	.	.	.	.	.	.	.	.	.	.
8e-\	.	.	.	.	.	.	.	.	.	.	.	.	.
8B-\	4gg\	.	.	.	.	.	.	.	.	.	.	.	.
8G\J)	.	.	.	.	.	.	.	.	.	.	.	.	.
*Xrep	*	*	*	*	*	*	*	*	*	*	*	*	*
=87	=87	=87	=87	=87	=87	=87	=87	=87	=87	=87	=87	=87	=87
*rep	*	*	*	*	*	*	*	*	*	*	*	*	*
(8E-\L	2ee-\	4r	.	.	4r	.	.	4r	.	.	4r	.	.
8G\	.	.	.	.	.	.	.	.	.	.	.	.	.
8B-\	.	4E-\	.	.	4B-\	Be-	.	4g/	.	.	4b-\	Be-	.
8e-\	.	.	.	.	.	.	.	.	.	.	.	.	.
8B-\	4gg\	4E-\	.	.	4B-\	-ne-	.	4g/	.	.	4b-\	-ne-	.
8G\J)	.	.	.	.	.	.	.	.	.	.	.	.	.
*Xrep	*	*	*	*	*	*	*	*	*	*	*	*	*
=88	=88	=88	=88	=88	=88	=88	=88	=88	=88	=88	=88	=88	=88
(8BB-\L	(8ff\L	4.BB-/	.	.	4.d\	-di-	.	4.f/	.	.	4.b-\	-di-	.
8F\	8dd\	.	.	.	.	.	.	.	.	.	.	.	.
8A-\	8ff\	.	.	.	.	.	.	.	.	.	.	.	.
8B-\	8ccc\	8BB-/	.	.	8e-\	-ci-	.	8f/	.	.	8cc\	-ci-	.
8A-\	8bb-\	4BB-/	.	.	4d\	-te	.	4f/	.	.	4b-\	-te	.
8F\J)	8dd\J)	.	.	.	.	.	.	.	.	.	.	.	.
=89	=89	=89	=89	=89	=89	=89	=89	=89	=89	=89	=89	=89	=89
(8BB-\L	(8aa-\L	[2.BB-/	.	.	(4B-\	do-	.	(4a-/	.	.	(4ff\	Do-	.
8D\	8ff\	.	.	.	.	.	.	.	.	.	.	.	.
8BB-\	8ee-\	.	.	.	4c\	.	.	4g/	.	.	4ee-\	.	.
8E-\	8gg\	.	.	.	.	.	.	.	.	.	.	.	.
8BB-\	8ff\	.	.	.	4d\)	.	.	4f/)	.	.	4dd\)	.	.
8F\J)	8dd\J)	.	.	.	.	.	.	.	.	.	.	.	.
=90	=90	=90	=90	=90	=90	=90	=90	=90	=90	=90	=90	=90	=90
(8BB-\L	(8cc\L	2BB-/]	.	.	4e-\	.	.	4e-/	.	.	4cc\	.	.
8G\	8ee-\	.	.	.	.	.	.	.	.	.	.	.	.
8BB-\	8dd\	.	.	.	4f\	.	.	4d/	.	.	4b-\	.	.
8A-\	8b-\	.	.	.	.	.	.	.	.	.	.	.	.
8BB-\	8a-\	4BB-/	.	.	4d\	-mi-	.	4f/	.	.	4a-\	-mi-	.
8F\J)	8cc\J)	.	.	.	.	.	.	.	.	.	.	.	.
=91	=91	=91	=91	=91	=91	=91	=91	=91	=91	=91	=91	=91	=91
(8E-\L	4b-\	4E-\	.	.	4e-\	-num	.	4e-/	.	.	4g/	-num	.
8G\	.	.	.	.	.	.	.	.	.	.	.	.	.
8B-\	4ee-\	4r	.	.	4r	.	.	4r	.	.	4r	.	.
8e-\	.	.	.	.	.	.	.	.	.	.	.	.	.
8B-\	4gg\	4r	.	.	4r	.	.	4r	.	.	4r	.	.
8G\J)	.	.	.	.	.	.	.	.	.	.	.	.	.
=92	=92	=92	=92	=92	=92	=92	=92	=92	=92	=92	=92	=92	=92
*rep	*	*	*	*	*	*	*	*	*	*	*	*	*
(8E-\L	4.ccc\	2.r	.	.	2.r	.	.	2.r	.	.	2.r	.	.
8G\	.	.	.	.	.	.	.	.	.	.	.	.	.
8B-\	.	.	.	.	.	.	.	.	.	.	.	.	.
8e-\	8bb-\	.	.	.	.	.	.	.	.	.	.	.	.
8B-\	4aan\	.	.	.	.	.	.	.	.	.	.	.	.
8G\J)	.	.	.	.	.	.	.	.	.	.	.	.	.
*Xrep	*	*	*	*	*	*	*	*	*	*	*	*	*
=93	=93	=93	=93	=93	=93	=93	=93	=93	=93	=93	=93	=93	=93
*rep	*	*	*	*	*	*	*	*	*	*	*	*	*
(8E-\L	2bb-\	2.r	.	.	2.r	.	.	2.r	.	.	2.r	.	.
8G\	.	.	.	.	.	.	.	.	.	.	.	.	.
8B-\	.	.	.	.	.	.	.	.	.	.	.	.	.
8e-\	.	.	.	.	.	.	.	.	.	.	.	.	.
8B-\	4gg\	.	.	.	.	.	.	.	.	.	.	.	.
8G\J)	.	.	.	.	.	.	.	.	.	.	.	.	.
*Xrep	*	*	*	*	*	*	*	*	*	*	*	*	*
!!LO:LB:g=original
=94	=94	=94	=94	=94	=94	=94	=94	=94	=94	=94	=94	=94	=94
(8E-\L	2ee-\	4r	.	.	4r	.	.	4r	.	.	4r	.	.
8G\	.	.	.	.	.	.	.	.	.	.	.	.	.
8B-\	.	4E-\	.	.	4B-\	.	.	4g/	.	.	4b-\	om-	.
8e-\	.	.	.	.	.	.	.	.	.	.	.	.	.
8B-\	4gg\	4E-\	.	.	4B-\	.	.	4g/	.	.	4b-\	-ne	.
8G\J)	.	.	.	.	.	.	.	.	.	.	.	.	.
=95	=95	=95	=95	=95	=95	=95	=95	=95	=95	=95	=95	=95	=95
(8BB-\L	(8ff\L	4.BB-/	.	.	4.d\	.	.	4.f/	.	.	4.b-\	An-	.
8F\	8dd\	.	.	.	.	.	.	.	.	.	.	.	.
8A-\	8ff\	.	.	.	.	.	.	.	.	.	.	.	.
8B-\	8ccc\	8BB-/	.	.	8e-\	.	.	8f/	.	.	8cc\	-ge-	.
8A-\	8bb-\	4BB-/	.	.	4d\	.	.	4f/	.	.	4b-\	-li	.
8F\J)	8dd\J)	.	.	.	.	.	.	.	.	.	.	.	.
=96	=96	=96	=96	=96	=96	=96	=96	=96	=96	=96	=96	=96	=96
(8BB-\L	(8aa-\L	4BB-/	.	.	4B-\	.	.	4a-/	.	.	4ff\	e-	.
8D\	8gg\	.	.	.	.	.	.	.	.	.	.	.	.
8BB-\	8ff\	4BB-/	.	.	4c\	.	.	4g/	.	.	4ee-\	-jus	.
8E-\	8gg\	.	.	.	.	.	.	.	.	.	.	.	.
8BB-\	8ff\	4BB-/	.	.	4d\	.	.	4f/	.	.	4dd\	po-	.
8F\J)	8dd\J)	.	.	.	.	.	.	.	.	.	.	.	.
=97	=97	=97	=97	=97	=97	=97	=97	=97	=97	=97	=97	=97	=97
(8BB-\L	(8cc\L	4BB-/	.	.	4e-\	.	.	4e-/	.	.	4cc\	-ten-	.
8G\	8ee-\	.	.	.	.	.	.	.	.	.	.	.	.
8BB-\	8dd\	4BB-/	.	.	4f\	.	.	4d/	.	.	4b-\	-tes	.
8A-\	8b-\	.	.	.	.	.	.	.	.	.	.	.	.
8BB-\	8a-\	4BB-/	.	.	4d\	.	.	4f/	.	.	4a-\	vir-	.
8F\J)	8cc\J)	.	.	.	.	.	.	.	.	.	.	.	.
=98	=98	=98	=98	=98	=98	=98	=98	=98	=98	=98	=98	=98	=98
(8E-\L	(8b-\L	4E-\	.	.	4B-\	.	.	4e-/	.	.	4g/	-tu-	.
8G\	8g\	.	.	.	.	.	.	.	.	.	.	.	.
8B-\	8e-\	4E-\	.	.	4B-\	.	.	4e-/	.	.	4g/	-te	.
8e-\	8g\	.	.	.	.	.	.	.	.	.	.	.	.
8B-\	8b-\	4E-\	.	.	4B-\	.	.	4e-/	.	.	4g/	qui	.
8G\J)	8ee-\J)	.	.	.	.	.	.	.	.	.	.	.	.
=99	=99	=99	=99	=99	=99	=99	=99	=99	=99	=99	=99	=99	=99
(8E-\L	(8b-\L	4.E-\	.	.	4.B-\	.	.	4.g/	.	.	4.g/	fa-	.
8G\	8ee-\	.	.	.	.	.	.	.	.	.	.	.	.
8B-\	8gg\	.	.	.	.	.	.	.	.	.	.	.	.
8E-\	8g\	8E-\	.	.	8Bn\	.	.	8g/	.	.	8gg\	-ci-	.
8D\	8dd\	4D\	.	.	4B\	.	.	4g/	.	.	4dd\	-tis	.
8Bn\J)	[8ff\J)	.	.	.	.	.	.	.	.	.	.	.	.
=100	=100	=100	=100	=100	=100	=100	=100	=100	=100	=100	=100	=100	=100
(8C\L	8ff\L]	4C/	.	.	4c\	.	.	4a-/	.	.	4ff\	ver-	.
8c\	(8a-\	.	.	.	.	.	.	.	.	.	.	.	.
8A-\	8cc\	4AA-/	.	.	4c\	.	.	4a-/	.	.	4ee-\	-bum	.
8c\	8ee-\	.	.	.	.	.	.	.	.	.	.	.	.
8A-\	8cc\	4A-\	.	.	4d\	.	.	4a-/	.	.	4dd\	qui	.
8d\J)	8a-\J)	.	.	.	.	.	.	.	.	.	.	.	.
=101	=101	=101	=101	=101	=101	=101	=101	=101	=101	=101	=101	=101	=101
(8E-\L	(8b-\L	4.E-\	.	.	4.e-\	.	.	4.g/	.	.	4.b-\	fa-	.
8G\	8ee-\	.	.	.	.	.	.	.	.	.	.	.	.
8B-\	8gg\	.	.	.	.	.	.	.	.	.	.	.	.
8E-\	8b-\	8E-\	.	.	8B-\	.	.	8g/	.	.	8gg\	-ci-	.
8D\	8dd\	4D\	.	.	4Bn\	.	.	4g/	.	.	4dd\	-tis	.
8Bn\J)	[8ff\J)	.	.	.	.	.	.	.	.	.	.	.	.
=102	=102	=102	=102	=102	=102	=102	=102	=102	=102	=102	=102	=102	=102
(8C\L	8ff\L]	(4C/	.	.	2c\	.	.	2a-/	.	.	(4ff\	ver-	.
8c\	(8a-\	.	.	.	.	.	.	.	.	.	.	.	.
8A-\	8cc\	4AA-/)	.	.	.	.	.	.	.	.	4ee-\)	.	.
8c\	8ee-\	.	.	.	.	.	.	.	.	.	.	.	.
8A-\	8cc\	4A-\	.	.	4d\	.	.	4a-/	.	.	4cc\	-bum	.
8d\J)	8a-\J)	.	.	.	.	.	.	.	.	.	.	.	.
=103	=103	=103	=103	=103	=103	=103	=103	=103	=103	=103	=103	=103	=103
(8E-\L	(8g\L	2.E-\	.	.	[2.e-\	.	.	2.g/	.	.	2.b-\	e-	.
8G\	8b-\	.	.	.	.	.	.	.	.	.	.	.	.
8B-\	8ee-\	.	.	.	.	.	.	.	.	.	.	.	.
8e-\	8gg\	.	.	.	.	.	.	.	.	.	.	.	.
8B-\	8ee-\	.	.	.	.	.	.	.	.	.	.	.	.
8G\J)	8b-\J)	.	.	.	.	.	.	.	.	.	.	.	.
=104	=104	=104	=104	=104	=104	=104	=104	=104	=104	=104	=104	=104	=104
(8AA-\L	(8cc\L	2.AA-/	.	.	2.e-\]	.	.	2.f/	.	.	2.cc\	.	.
8C\	8a-\	.	.	.	.	.	.	.	.	.	.	.	.
8E-\	8f\	.	.	.	.	.	.	.	.	.	.	.	.
8A-\	8en\	.	.	.	.	.	.	.	.	.	.	.	.
8E-\	8f\	.	.	.	.	.	.	.	.	.	.	.	.
8C\J)	8a-\J)	.	.	.	.	.	.	.	.	.	.	.	.
=105	=105	=105	=105	=105	=105	=105	=105	=105	=105	=105	=105	=105	=105
4BB-/	(8f/L	[2.BB-/	.	.	2.B-\	.	.	2.e-/	.	.	2.f/	.	.
.	8e-X/	.	.	.	.	.	.	.	.	.	.	.	.
4r	8B-/	.	.	.	.	.	.	.	.	.	.	.	.
.	8e-/	.	.	.	.	.	.	.	.	.	.	.	.
4r	8f/	.	.	.	.	.	.	.	.	.	.	.	.
.	8b-/J)	.	.	.	.	.	.	.	.	.	.	.	.
!!LO:PB:g=original
=106	=106	=106	=106	=106	=106	=106	=106	=106	=106	=106	=106	=106	=106
!	!	!LO:N:vis=2	!	!	!	!	!	!	!	!	!	!	!
4BB-/	(8f/L	2.BB-/]	.	.	2.A-/	.	.	2.d/	.	.	2.b-\	.	.
.	8d/	.	.	.	.	.	.	.	.	.	.	.	.
4r	8B-/	.	.	.	.	.	.	.	.	.	.	.	.
.	8d/	.	.	.	.	.	.	.	.	.	.	.	.
4r	8f/	.	.	.	.	.	.	.	.	.	.	.	.
.	8b-/J)	.	.	.	.	.	.	.	.	.	.	.	.
=107	=107	=107	=107	=107	=107	=107	=107	=107	=107	=107	=107	=107	=107
(8E-\L	4e-/	4E-\	.	.	4G/	.	.	4e-/	.	.	4e-/	-jus	.
8G\	.	.	.	.	.	.	.	.	.	.	.	.	.
8B-\	4ee-\	4r	.	.	4r	.	.	4r	.	.	4r	.	.
8e-\	.	.	.	.	.	.	.	.	.	.	.	.	.
8B-\	4gg\	4r	.	.	4r	.	.	4r	.	.	4r	.	.
8G\J)	.	.	.	.	.	.	.	.	.	.	.	.	.
=108	=108	=108	=108	=108	=108	=108	=108	=108	=108	=108	=108	=108	=108
(8E-\L	4.ccc\	2.r	.	.	2.r	.	.	2.r	.	.	2.r	.	.
8F#X\	.	.	.	.	.	.	.	.	.	.	.	.	.
8An\	.	.	.	.	.	.	.	.	.	.	.	.	.
8e-\	8bb-\	.	.	.	.	.	.	.	.	.	.	.	.
8A\	4aan\	.	.	.	.	.	.	.	.	.	.	.	.
8F#\J)	.	.	.	.	.	.	.	.	.	.	.	.	.
=109	=109	=109	=109	=109	=109	=109	=109	=109	=109	=109	=109	=109	=109
(8E-\L	4bb-\	2.r	.	.	2.r	.	.	2.r	.	.	2.r	.	.
8G\	.	.	.	.	.	.	.	.	.	.	.	.	.
8B-\	4ee-\	.	.	.	.	.	.	.	.	.	.	.	.
8e-\	.	.	.	.	.	.	.	.	.	.	.	.	.
8B-\	4gg\	.	.	.	.	.	.	.	.	.	.	.	.
8G\J)	.	.	.	.	.	.	.	.	.	.	.	.	.
=110	=110	=110	=110	=110	=110	=110	=110	=110	=110	=110	=110	=110	=110
(8E-\L	4.ccc\	2.r	.	.	2.r	.	.	2.r	.	.	2.r	.	.
8F#X\	.	.	.	.	.	.	.	.	.	.	.	.	.
8An\	.	.	.	.	.	.	.	.	.	.	.	.	.
8e-\	8bb-\	.	.	.	.	.	.	.	.	.	.	.	.
8A\	4aan\	.	.	.	.	.	.	.	.	.	.	.	.
8F#\J)	.	.	.	.	.	.	.	.	.	.	.	.	.
=111	=111	=111	=111	=111	=111	=111	=111	=111	=111	=111	=111	=111	=111
4G 4E-\	(8bb-\L	2.r	.	.	2.r	.	.	2.r	.	.	2.r	.	.
.	8gg\	.	.	.	.	.	.	.	.	.	.	.	.
4r	8ee-\	.	.	.	.	.	.	.	.	.	.	.	.
.	8gg\	.	.	.	.	.	.	.	.	.	.	.	.
4r	8b-\	.	.	.	.	.	.	.	.	.	.	.	.
.	8ee-\J)	.	.	.	.	.	.	.	.	.	.	.	.
=112	=112	=112	=112	=112	=112	=112	=112	=112	=112	=112	=112	=112	=112
2.r	(8g/L	2.r	.	.	2.r	.	.	2.r	.	.	2.r	.	.
.	8b-/	.	.	.	.	.	.	.	.	.	.	.	.
.	8e-/	.	.	.	.	.	.	.	.	.	.	.	.
.	8g/	.	.	.	.	.	.	.	.	.	.	.	.
.	8B-/	.	.	.	.	.	.	.	.	.	.	.	.
.	8e-/J)	.	.	.	.	.	.	.	.	.	.	.	.
=113	=113	=113	=113	=113	=113	=113	=113	=113	=113	=113	=113	=113	=113
!	!	!	!	!LO:DY:b:rj	!	!	!LO:DY:b:rj	!	!	!LO:DY:b:rj	!	!	!LO:DY:b:rj
[2.AA-/	(8cc/L	[>2.AA-/	.	p	[2.A-/	.	p	[>2.e-/	.	p	(2.cc\	A-	p
.	8a-/	.	.	.	.	.	.	.	.	.	.	.	.
.	8e-/	.	.	.	.	.	.	.	.	.	.	.	.
.	8c/	.	.	.	.	.	.	.	.	.	.	.	.
.	8e-/	.	.	.	.	.	.	.	.	.	.	.	.
.	8a-/J)	.	.	.	.	.	.	.	.	.	.	.	.
=114	=114	=114	=114	=114	=114	=114	=114	=114	=114	=114	=114	=114	=114
2.AA-/]	(8cc-X/L	2.AA-/]	.	.	2.A-/]	.	.	2.e-/]	.	.	2.cc-X\)	.	.
.	8a-/	.	.	.	.	.	.	.	.	.	.	.	.
.	8e-/	.	.	.	.	.	.	.	.	.	.	.	.
.	8c-X/	.	.	.	.	.	.	.	.	.	.	.	.
.	8e-/	.	.	.	.	.	.	.	.	.	.	.	.
.	8a-/J)	.	.	.	.	.	.	.	.	.	.	.	.
=115	=115	=115	=115	=115	=115	=115	=115	=115	=115	=115	=115	=115	=115
4EE-;/	4b- 4g 4e- 4B-;/	4E-;\	.	.	4G;/	.	.	4e-;/	.	.	4b-;\	-men	.
4r	4r	4r	.	.	4r	.	.	4r	.	.	4r	.	.
4r	4r	4r	.	.	4r	.	.	4r	.	.	4r	.	.
==	==	==	==	==	==	==	==	==	==	==	==	==	==
*-	*-	*-	*-	*-	*-	*-	*-	*-	*-	*-	*-	*-	*-
!!!system-decoration: s1,s2,s3,s4[(s5,s6)]
!!!RDF**kern: > = above
!!!RDF**kern: < = below
!!!ENC: Marta Lawrence
!!!END: 202-05-28
!!!ENC: Katarzyna Serwa
!!!END: 2021-05-14
